X:1
T:Land of Pleasure
T:Ananias Davisson A Major               and William Walker, 1835
T:Transcribed from Southern Harmony , 1835; Counter by B. C. Johnston, 2018.
T:Anonymous Author, before 1815 
%%score [ 1 2 3 4 ]
L:1/8
Q:1/4=135
M:4/4
K:A
V:1 treble nm="Tr." snm="Tr."
V:2 treble nm="A." snm="A."
V:3 treble-8 nm="T." snm="T."
V:4 bass nm="B." snm="B."
V:1
 z4"_1. {" c4 | e2 c2 cB A2 | B4 c2 e2 | e3 c B2 cB |1 A2 [Be]2"_}" [Be]4 :|2 A2 A2 c4- || c4 d4 | %7
w: There|is a land * of|plea- sure. Where|peace and joy for- *|ev- er roll;||* Long|
w: Tis|there I have * my|trea- sure, And|there I long to *||rest my soul.||
 c2 e2 e2 c2 | B4 c2 e2 | d2 B2 c2 B2 | AB c2 e4 | c4 e2 c2 | cB A2 B4 | c2 e2 e3 c | B2 cB A2 A2 | %15
w: dark- ness dwelt a-|round me, With|scarce- ly once a|chee- * ring ray;|But since the|Sa- * vior found|me, A lamp has|shone a- * long my|
w: ||||||||
 c8 |] %16
w: way.|
w: |
V:2
 z4"_2. {" A4 | B2 A2 A2 F2 | E4 F2 E2 | E3 A B2 AB |1 A2 B2"_}" B4 :|2 A2 A2 A4- || A4 A4 | %7
w: My|way is full of|dan- ger, But|tis the path that *|leads to God;||* Now|
w: And|like a faith- ful|sol- dier, I'll|march a- long the *||hea- venly road;||
 A2 B2 A2 F2 | E4 E2 A2 | F2 B2 A2 B2 | AB c2 B4 | A4 B2 c2 | cB A2 B4 | A2 A2 B3 c | B2 AB A2 A2 | %15
w: I must gird my|sword on, My|breast- plate, hel- met,|and * my shield,|And fight the|hosts * of Sa-|tan, Un- til I|reach the * hea- venly|
w: ||||||||
 A8 |] %16
w: field.|
w: |
V:3
 z4"_3. {" c4 | B2 A2 F2 A2 | E4 F2 A2 | B3 c B2 AB |1 c2 B2"_}" B4 :|2 c2 A2 A4- || A4 d4 | %7
w: I'm|on the way to|Zi- on, Still|guar- ded by my *|Sa- vior's hand;||* To|
w: O|come a- long, dear|sin- ner, And|view Em- man- uel's *||hap- py land.||
 c2 B2 A2 c2 | e4 e2 c2 | d2 B2 c2 e2 | fe c2 B4 | c4 B2 A2 | F2 A2 E4 | F2 A2 B3 c | B2 AB c2 A2 | %15
w: all that stay be-|hind me, I|bid a long, a|sad * fare- well!|O come! or|you'll re- pent|it, When you shall|reach the * gates of|
w: ||||||||
"_7. Soon the archangel’s trumpet \nShall shake the globe from pole to pole, \nAnd all the wheels of nature \nShall in a moment cease to roll: \nThen we shall see the Savior, \nWith shining ranks of angels come, \nTo execute his vengeance, \nAnd take his ransomed people home." A8 |] %16
w: hell.|
w: |
V:4
 z4"_4. {" A,4 | E,2 F,2 A,2 F,2 | E,4 C,2 A,,2 | B,,3 C, E,2 E,2 |1 A,2 E,2"_}" E,4 :|2 %5
w: The|vale of tears sur-|rounds me, And|Jor- dan's cur- rent|rolls be- fore;|
w: Oh!|how I stand and|trem- ble, To|hear the dis- mail||
 F,2 E,2 A,,4- || A,,4 D,4 | C,2 E,2 A,2 F,2 | E,4 A,2 A,2 | F,2 E,2 A,2 E,2 | C,2 C,2 E,4 | %11
w: |* Whose|hand shall then sup-|port me, And|keep my soul from|sink- ing there?|
w: wa- ters roar!||||||
 A,4 E,2 F,2 | A,2 F,2 E,4 | %13
w: From sink- ing|down to dark-|
w: ||
"_5. This stream shall not affright me, \nAlthough it take me to the grave; \nIf Jesus stand beside me. \nI’ll safely ride on Jordan’s wave: \nHis word can calm the ocean. \nHis lamp can cheer the gloomy vale: \nO may this friend he with me, \nWhen through the gates of death I sail!" C,2 A,,2 B,,3 C, | %14
w: ness, And to the|
w: |
 C,2"_6. Come then thou king of terrors, \nThy fatal dart may lay me low; \nBut soon I’ll reach those regions\nWhere everlasting pleasures flow: \nO sinners, I must leave you, \nAnd join that blest immortal band, \nNo more to stand beside you, \nTill at the judgment bar we stand." C,2 A,2 F,2 | %15
w: re- gions of des-|
w: |
 A,,8 |] %16
w: pair?|
w: |

